icons/widgets/Radio.svg

<path
	d="M6.25005 8.70007C7.25005 8.50007 8.30005 8.30007 9.30005 8.10007C11.25 7.70007 13.25 7.30007 15.2 6.90007C17.25 6.50007 19.3 6.10007 21.35 5.65007C23.1 5.30007 24.8 4.95007 26.55 4.60007L29.55 4.00007C29.65 4.00007 29.75 3.95007 29.85 3.95007C30 3.90007 30.1 3.70007 30.05 3.55007C30 3.35007 29.85 3.30007 29.65 3.35007C29.15 3.50007 28.55 3.60007 28 3.70007C26.5 4.00007 25 4.30007 23.55 4.60007C21.6 5.00007 19.6 5.40007 17.65 5.80007C15.6 6.20007 13.55 6.60007 11.5 7.05007C9.75005 7.40007 8.05005 7.75007 6.30005 8.10007L3.30005 8.70007C3.20005 8.70007 3.15005 8.75007 3.05005 8.75007L6.25005 8.70007"
	fill="#D0D0D0" />
<path
	d="M32 26.6499C32 27.6999 31.05 28.6499 30 28.6499H2C0.95 28.6499 0 27.6999 0 26.6499V10.6499C0 9.5999 0.95 8.6499 2 8.6499H30C31.05 8.6499 32 9.5999 32 10.6499V26.6499Z"
	fill="#D3976E" />
<path
	d="M8.4499 19.1C8.89173 19.1 9.2499 18.7418 9.2499 18.3C9.2499 17.8582 8.89173 17.5 8.4499 17.5C8.00807 17.5 7.6499 17.8582 7.6499 18.3C7.6499 18.7418 8.00807 19.1 8.4499 19.1Z"
	fill="#594640" />
<path
	d="M10.25 17.3C10.6918 17.3 11.05 16.9418 11.05 16.5C11.05 16.0581 10.6918 15.7 10.25 15.7C9.80812 15.7 9.44995 16.0581 9.44995 16.5C9.44995 16.9418 9.80812 17.3 10.25 17.3Z"
	fill="#594640" />
<path
	d="M12.05 15.5001C12.4918 15.5001 12.85 15.142 12.85 14.7001C12.85 14.2583 12.4918 13.9001 12.05 13.9001C11.6082 13.9001 11.25 14.2583 11.25 14.7001C11.25 15.142 11.6082 15.5001 12.05 15.5001Z"
	fill="#594640" />
<path
	d="M6.64985 20.9C7.09168 20.9 7.44985 20.5419 7.44985 20.1C7.44985 19.6582 7.09168 19.3 6.64985 19.3C6.20803 19.3 5.84985 19.6582 5.84985 20.1C5.84985 20.5419 6.20803 20.9 6.64985 20.9Z"
	fill="#594640" />
<path
	d="M6.64985 17.3C7.09168 17.3 7.44985 16.9418 7.44985 16.5C7.44985 16.0581 7.09168 15.7 6.64985 15.7C6.20803 15.7 5.84985 16.0581 5.84985 16.5C5.84985 16.9418 6.20803 17.3 6.64985 17.3Z"
	fill="#594640" />
<path
	d="M6.64985 13.65C7.09168 13.65 7.44985 13.2919 7.44985 12.85C7.44985 12.4082 7.09168 12.05 6.64985 12.05C6.20803 12.05 5.84985 12.4082 5.84985 12.85C5.84985 13.2919 6.20803 13.65 6.64985 13.65Z"
	fill="#594640" />
<path
	d="M8.4499 15.5001C8.89173 15.5001 9.2499 15.142 9.2499 14.7001C9.2499 14.2583 8.89173 13.9001 8.4499 13.9001C8.00807 13.9001 7.6499 14.2583 7.6499 14.7001C7.6499 15.142 8.00807 15.5001 8.4499 15.5001Z"
	fill="#594640" />
<path
	d="M4.85005 19.1C5.29188 19.1 5.65005 18.7418 5.65005 18.3C5.65005 17.8582 5.29188 17.5 4.85005 17.5C4.40822 17.5 4.05005 17.8582 4.05005 18.3C4.05005 18.7418 4.40822 19.1 4.85005 19.1Z"
	fill="#594640" />
<path
	d="M10.25 20.9C10.6918 20.9 11.05 20.5419 11.05 20.1C11.05 19.6582 10.6918 19.3 10.25 19.3C9.80812 19.3 9.44995 19.6582 9.44995 20.1C9.44995 20.5419 9.80812 20.9 10.25 20.9Z"
	fill="#594640" />
<path
	d="M12.05 22.7001C12.4918 22.7001 12.85 22.3419 12.85 21.9001C12.85 21.4583 12.4918 21.1001 12.05 21.1001C11.6082 21.1001 11.25 21.4583 11.25 21.9001C11.25 22.3419 11.6082 22.7001 12.05 22.7001Z"
	fill="#594640" />
<path
	d="M12.05 19.1C12.4918 19.1 12.85 18.7418 12.85 18.3C12.85 17.8582 12.4918 17.5 12.05 17.5C11.6082 17.5 11.25 17.8582 11.25 18.3C11.25 18.7418 11.6082 19.1 12.05 19.1Z"
	fill="#594640" />
<path
	d="M10.25 13.65C10.6918 13.65 11.05 13.2919 11.05 12.85C11.05 12.4082 10.6918 12.05 10.25 12.05C9.80812 12.05 9.44995 12.4082 9.44995 12.85C9.44995 13.2919 9.80812 13.65 10.25 13.65Z"
	fill="#594640" />
<path
	d="M13.8999 20.9C14.3417 20.9 14.6999 20.5419 14.6999 20.1C14.6999 19.6582 14.3417 19.3 13.8999 19.3C13.458 19.3 13.0999 19.6582 13.0999 20.1C13.0999 20.5419 13.458 20.9 13.8999 20.9Z"
	fill="#594640" />
<path
	d="M8.4499 22.7001C8.89173 22.7001 9.2499 22.3419 9.2499 21.9001C9.2499 21.4583 8.89173 21.1001 8.4499 21.1001C8.00807 21.1001 7.6499 21.4583 7.6499 21.9001C7.6499 22.3419 8.00807 22.7001 8.4499 22.7001Z"
	fill="#594640" />
<path
	d="M4.85005 22.7001C5.29188 22.7001 5.65005 22.3419 5.65005 21.9001C5.65005 21.4583 5.29188 21.1001 4.85005 21.1001C4.40822 21.1001 4.05005 21.4583 4.05005 21.9001C4.05005 22.3419 4.40822 22.7001 4.85005 22.7001Z"
	fill="#594640" />
<path
	d="M2.99995 20.9C3.44178 20.9 3.79995 20.5419 3.79995 20.1C3.79995 19.6582 3.44178 19.3 2.99995 19.3C2.55812 19.3 2.19995 19.6582 2.19995 20.1C2.19995 20.5419 2.55812 20.9 2.99995 20.9Z"
	fill="#594640" />
<path
	d="M6.64985 24.5499C7.09168 24.5499 7.44985 24.1918 7.44985 23.7499C7.44985 23.3081 7.09168 22.95 6.64985 22.95C6.20803 22.95 5.84985 23.3081 5.84985 23.7499C5.84985 24.1918 6.20803 24.5499 6.64985 24.5499Z"
	fill="#594640" />
<path
	d="M4.85005 15.5001C5.29188 15.5001 5.65005 15.142 5.65005 14.7001C5.65005 14.2583 5.29188 13.9001 4.85005 13.9001C4.40822 13.9001 4.05005 14.2583 4.05005 14.7001C4.05005 15.142 4.40822 15.5001 4.85005 15.5001Z"
	fill="#594640" />
<path
	d="M13.8999 17.3C14.3417 17.3 14.6999 16.9418 14.6999 16.5C14.6999 16.0581 14.3417 15.7 13.8999 15.7C13.458 15.7 13.0999 16.0581 13.0999 16.5C13.0999 16.9418 13.458 17.3 13.8999 17.3Z"
	fill="#594640" />
<path
	d="M2.99995 17.3C3.44178 17.3 3.79995 16.9418 3.79995 16.5C3.79995 16.0581 3.44178 15.7 2.99995 15.7C2.55812 15.7 2.19995 16.0581 2.19995 16.5C2.19995 16.9418 2.55812 17.3 2.99995 17.3Z"
	fill="#594640" />
<path
	d="M10.25 24.5499C10.6918 24.5499 11.05 24.1918 11.05 23.7499C11.05 23.3081 10.6918 22.95 10.25 22.95C9.80812 22.95 9.44995 23.3081 9.44995 23.7499C9.44995 24.1918 9.80812 24.5499 10.25 24.5499Z"
	fill="#594640" />
<path
	d="M29.85 12.85C29.85 13.75 29.15 14.45 28.25 14.45H18.65C17.75 14.45 17.05 13.75 17.05 12.85C17.05 11.95 17.75 11.25 18.65 11.25H28.25C29.1 11.25 29.85 12 29.85 12.85Z"
	fill="white" />
<path
	d="M19.9 21.9001C21.2255 21.9001 22.3 20.8256 22.3 19.5001C22.3 18.1746 21.2255 17.1001 19.9 17.1001C18.5745 17.1001 17.5 18.1746 17.5 19.5001C17.5 20.8256 18.5745 21.9001 19.9 21.9001Z"
	fill="#594640" />
<path d="M20.95 14.45L20.7 12.3L20.5 14.45H20.95Z" fill="#ED4C5C" />
<path
	d="M26.95 21.85C28.2755 21.85 29.35 20.7755 29.35 19.45C29.35 18.1246 28.2755 17.05 26.95 17.05C25.6246 17.05 24.55 18.1246 24.55 19.45C24.55 20.7755 25.6246 21.85 26.95 21.85Z"
	fill="#594640" />
<path
	d="M29.85 25.4C29.85 25.85 29.5 26.25 29.05 26.25H26.65C26.2 26.25 25.8 25.9 25.8 25.4C25.8 24.95 26.15 24.55 26.65 24.55H29C29.45 24.55 29.85 24.95 29.85 25.4Z"
	fill="#594640" />
<path d="M17.5 21.3V21.9H18.35L20.35 19.95L19.6 19.2L17.5 21.3Z" fill="#D3976E" />
<path d="M24.55 21.3V21.9H25.35L27.35 19.95L26.65 19.2L24.55 21.3Z" fill="#D3976E" />

<path d="M6.25 8.7c1-.2 2.05-.4 3.05-.6 1.95-.4 3.95-.8 5.9-1.2 2.05-.4 4.1-.8 6.15-1.25 1.75-.35 3.45-.7 5.2-1.05l3-.6c.1 0 .2-.05.3-.05a.34.34 0 0 0 .2-.4c-.05-.2-.2-.25-.4-.2-.5.15-1.1.25-1.65.35-1.5.3-3 .6-4.45.9-1.95.4-3.95.8-5.9 1.2-2.05.4-4.1.8-6.15 1.25-1.75.35-3.45.7-5.2 1.05l-3 .6c-.1 0-.15.05-.25.05l3.2-.05" fill="#D0D0D0"/><path d="M32 26.65c0 1.05-.95 2-2 2H2c-1.05 0-2-.95-2-2v-16c0-1.05.95-2 2-2h28c1.05 0 2 .95 2 2v16Z" fill="#D3976E"/><path d="M8.45 19.1a.8.8 0 1 0 0-1.6.8.8 0 0 0 0 1.6Z" fill="#594640"/><path d="M10.25 17.3a.8.8 0 1 0 0-1.6.8.8 0 0 0 0 1.6Z" fill="#594640"/><path d="M12.05 15.5a.8.8 0 1 0 0-1.6.8.8 0 0 0 0 1.6Z" fill="#594640"/><path d="M6.65 20.9a.8.8 0 1 0 0-1.6.8.8 0 0 0 0 1.6Z" fill="#594640"/><path d="M6.65 17.3a.8.8 0 1 0 0-1.6.8.8 0 0 0 0 1.6Z" fill="#594640"/><path d="M6.65 13.65a.8.8 0 1 0 0-1.6.8.8 0 0 0 0 1.6Z" fill="#594640"/><path d="M8.45 15.5a.8.8 0 1 0 0-1.6.8.8 0 0 0 0 1.6Z" fill="#594640"/><path d="M4.85 19.1a.8.8 0 1 0 0-1.6.8.8 0 0 0 0 1.6Z" fill="#594640"/><path d="M10.25 20.9a.8.8 0 1 0 0-1.6.8.8 0 0 0 0 1.6Z" fill="#594640"/><path d="M12.05 22.7a.8.8 0 1 0 0-1.6.8.8 0 0 0 0 1.6Z" fill="#594640"/><path d="M12.05 19.1a.8.8 0 1 0 0-1.6.8.8 0 0 0 0 1.6Z" fill="#594640"/><path d="M10.25 13.65a.8.8 0 1 0 0-1.6.8.8 0 0 0 0 1.6Z" fill="#594640"/><path d="M13.9 20.9a.8.8 0 1 0 0-1.6.8.8 0 0 0 0 1.6Z" fill="#594640"/><path d="M8.45 22.7a.8.8 0 1 0 0-1.6.8.8 0 0 0 0 1.6Z" fill="#594640"/><path d="M4.85 22.7a.8.8 0 1 0 0-1.6.8.8 0 0 0 0 1.6Z" fill="#594640"/><path d="M3 20.9a.8.8 0 1 0 0-1.6.8.8 0 0 0 0 1.6Z" fill="#594640"/><path d="M6.65 24.55a.8.8 0 1 0 0-1.6.8.8 0 0 0 0 1.6Z" fill="#594640"/><path d="M4.85 15.5a.8.8 0 1 0 0-1.6.8.8 0 0 0 0 1.6Z" fill="#594640"/><path d="M13.9 17.3a.8.8 0 1 0 0-1.6.8.8 0 0 0 0 1.6Z" fill="#594640"/><path d="M3 17.3a.8.8 0 1 0 0-1.6.8.8 0 0 0 0 1.6Z" fill="#594640"/><path d="M10.25 24.55a.8.8 0 1 0 0-1.6.8.8 0 0 0 0 1.6Z" fill="#594640"/><path d="M29.85 12.85c0 .9-.7 1.6-1.6 1.6h-9.6c-.9 0-1.6-.7-1.6-1.6 0-.9.7-1.6 1.6-1.6h9.6c.85 0 1.6.75 1.6 1.6Z" fill="#fff"/><path d="M19.9 21.9a2.4 2.4 0 1 0 0-4.8 2.4 2.4 0 0 0 0 4.8Z" fill="#594640"/><path d="m20.95 14.45-.25-2.15-.2 2.15h.45Z" fill="#ED4C5C"/><path d="M26.95 21.85a2.4 2.4 0 1 0 0-4.8 2.4 2.4 0 0 0 0 4.8Z" fill="#594640"/><path d="M29.85 25.4c0 .45-.35.85-.8.85h-2.4c-.45 0-.85-.35-.85-.85 0-.45.35-.85.85-.85H29c.45 0 .85.4.85.85Z" fill="#594640"/><path d="M17.5 21.3v.6h.85l2-1.95-.75-.75-2.1 2.1Z" fill="#D3976E"/><path d="M24.55 21.3v.6h.8l2-1.95-.7-.75-2.1 2.1Z" fill="#D3976E"/>
